/* XPM */
static char *DELETE_xpm[]={
"26 26 152 2",
"      c #FFFFFF",
" 0    c #FEFEFE",
" 1    c #FCFCFC",
" 2    c #EFEFEF",
" 3    c #E3E3E3",
" 4    c #E9E9E9",
" 5    c #F7F7F7",
" 6    c #DBDBDB",
" 7    c #8F8F8F",
" 8    c #606060",
" 9    c #6E6E6E",
" a    c #B6B6B6",
" b    c #F1F1F1",
" c    c #858585",
" d    c #1A1A1A",
" e    c #030303",
" f    c #070707",
" g    c #3D3D3D",
" h    c #C1C1C1",
" i    c #F9F9F9",
" j    c #3F3F3F",
" k    c #020202",
" l    c #000000",
" m    c #040404",
" n    c #131313",
" o    c #929292",
" p    c #F0F0F0",
" q    c #FEFCFC",
" r    c #FFFDFD",
" s    c #FFFBFB",
" t    c #404040",
" u    c #0C0C0C",
" v    c #2E2E2E",
" w    c #4F4F4F",
" x    c #5E5C5C",
" y    c #E7D7D7",
" z    c #FFBDBD",
" A    c #FFADAD",
" B    c #FFE6E6",
" C    c #848484",
" D    c #1B1B1B",
" E    c #060606",
" F    c #B4ABAB",
" G    c #B13737",
" H    c #F70505",
" I    c #FF0404",
" J    c #FF5757",
" K    c #FFEEEE",
" L    c #DADADA",
" M    c #909090",
" N    c #5F5F5F",
" O    c #B5B5B5",
" P    c #FEEFEF",
" Q    c #FF3636",
" R    c #FF0000",
" S    c #FF0F0F",
" T    c #FFE4E4",
" U    c #FBFBFB",
" V    c #E4E4E4",
" W    c #E8E8E8",
" X    c #F6F6F6",
" Y    c #FFF6F6",
" Z    c #FF8484",
" &    c #FF0C0C",
"0     c #FC0202",
"00    c #E63D3D",
"01    c #FFF4F4",
"02    c #FFF0F0",
"03    c #FFC2C2",
"04    c #EEA4A4",
"05    c #856565",
"06    c #DCDCDC",
"07    c #FFFCFC",
"08    c #B5B3B3",
"09    c #626262",
"0a    c #646464",
"0b    c #D2C3C3",
"0c    c #FFE3E3",
"0d    c #FFF1F1",
"0e    c #BF9C9C",
"0f    c #CE2828",
"0g    c #FE1414",
"0h    c #FF6A6A",
"0i    c #FFECEC",
"0j    c #F7A2A2",
"0k    c #FD0202",
"0l    c #FF0A0A",
"0m    c #FFC4C4",
"0n    c #FFBCBC",
"0o    c #FE0D0D",
"0p    c #F90D0D",
"0q    c #FFCECE",
"0r    c #FF8A8A",
"0s    c #F73232",
"0t    c #BC4747",
"0u    c #F4E6E6",
"0v    c #FFF8F8",
"0w    c #8B8585",
"0x    c #A1A1A1",
"0y    c #FFF9F9",
"0z    c #FFF7F7",
"0A    c #FFFAFA",
"0B    c #E7E7E7",
"0C    c #8C8787",
"0D    c #C98B8B",
"0E    c #FF7070",
"0F    c #FFABAB",
"0G    c #FFF3F3",
"0H    c #FDFDFD",
"0I    c #E9D8D8",
"0J    c #CF1010",
"0K    c #FF0101",
"0L    c #FF2121",
"0M    c #FFC9C9",
"0N    c #FEFBFB",
"0O    c #EAEAEA",
"0P    c #D8D8D8",
"0Q    c #E1E1E1",
"0R    c #F4F4F4",
"0S    c #FFEAEA",
"0T    c #F91616",
"0U    c #F90606",
"0V    c #EDA9A9",
"0W    c #FBF9F9",
"0X    c #CDCDCD",
"0Y    c #6F6F6F",
"0Z    c #3C3C3C",
"0&    c #4D4D4D",
"1     c #A3A3A3",
"10    c #FF8383",
"11    c #FF1E1E",
"12    c #E14D4D",
"13    c #503A3A",
"14    c #7C7C7C",
"15    c #515151",
"16    c #2C2C2C",
"17    c #050505",
"18    c #353535",
"19    c #FFEDED",
"1a    c #F2F2F2",
"1b    c #B3B3B3",
"1c    c #3E3E3E",
"1d    c #0E0E0E",
"1e    c #E0E0E0",
"1f    c #4E4E4E",
"1g    c #181818",
"1h    c #171717",
"1i    c #6D6D6D",
"1j    c #BABABA",
"1k    c #989898",
"1l    c #A6A6A6",
"1m    c #D5D5D5",
"   0 0 0                                            ",
" 1 2 3 4 5 0                                        ",
" 6 7 8 9 a b 0                                      ",
" c d e f g h i 0                                    ",
" j k l m n o p q r s                                ",
" t k l u v w x y z A B r                            ",
" C D e E j h F G H I J K                            ",
" L M N 9 O b P Q R R S T                            ",
" U b V W X 0 Y Z &0 0001                            ",
"     0 0      0203040506                            ",
"                07070809                            ",
"                      0a0b0c0d                      ",
"                     s0e0f0g0h0i                    ",
"                     s0j0k R0l0m r                  ",
"                     s0n0o R0p0q                    ",
"                      0d0r0s0t0u                    ",
"                        0v010w0x0y0z0A              ",
"                            0B0C0D0E0F0G     0 00H  ",
"                              0I0J0K0L0M0N U0O0P0Q0R",
"                              0S0T R0U0V0W0X0Y0Z0&1 ",
"                               Y10111213141516 k1718",
"                                 Y190G1a1b1c1d l l u",
"                                       01e1f17 l l1g",
"                                       00R1 18 u1h1i",
"                                        0H0O1j1k1l1m",
"                                          0H 5 p0R U"};
