/* XPM */
static char *LOOPANIM_xpm[]={
"26 26 122 2",
"      c #FFFFFF",
" 0    c #868686",
" 1    c #2B2B2B",
" 2    c #808080",
" 3    c #2D2D2D",
" 4    c #CFCFCF",
" 5    c #787878",
" 6    c #141414",
" 7    c #737373",
" 8    c #1A1A1A",
" 9    c #CACACA",
" a    c #7C7C7C",
" b    c #191919",
" c    c #757575",
" d    c #1B1B1B",
" e    c #CBCBCB",
" f    c #E4E4E4",
" g    c #E5E5E5",
" h    c #FEFEFE",
" i    c #F5F5F5",
" j    c #D9D9D9",
" k    c #F7F7F7",
" l    c #515151",
" m    c #272727",
" n    c #888888",
" o    c #121212",
" p    c #A0A0A0",
" q    c #F8F8F8",
" r    c #7B7B7B",
" s    c #010101",
" t    c #1C1C1C",
" u    c #B8B8B8",
" v    c #7A7A7A",
" w    c #000000",
" x    c #1D1D1D",
" y    c #BABABA",
" z    c #9C9C9C",
" A    c #0C0C0C",
" B    c #0D0D0D",
" C    c #A2A2A2",
" D    c #EBEBEB",
" E    c #616161",
" F    c #383838",
" G    c #D3D3D3",
" H    c #B2B2B2",
" I    c #1F1F1F",
" J    c #060606",
" K    c #848484",
" L    c #747474",
" M    c #DCDCDC",
" N    c #E1E1E1",
" O    c #404040",
" P    c #565656",
" Q    c #E3E3E3",
" R    c #D0D0D0",
" S    c #3B3B3B",
" T    c #707070",
" U    c #767676",
" V    c #212121",
" W    c #9D9D9D",
" X    c #F9F9F9",
" Y    c #D4D4D4",
" Z    c #CDCDCD",
" &    c #CECECE",
"0     c #DEDEDE",
"00    c #B1B1B1",
"01    c #0F0F0F",
"02    c #252525",
"03    c #050505",
"04    c #101010",
"05    c #5D5D5D",
"06    c #D5D5D5",
"07    c #D7D7D7",
"08    c #242424",
"09    c #151515",
"0a    c #171717",
"0b    c #202020",
"0c    c #0E0E0E",
"0d    c #828282",
"0e    c #181818",
"0f    c #1E1E1E",
"0g    c #585858",
"0h    c #464646",
"0i    c #484848",
"0j    c #525252",
"0k    c #343434",
"0l    c #232323",
"0m    c #111111",
"0n    c #4E4E4E",
"0o    c #EAEAEA",
"0p    c #454545",
"0q    c #7D7D7D",
"0r    c #030303",
"0s    c #929292",
"0t    c #F3F3F3",
"0u    c #595959",
"0v    c #838383",
"0w    c #262626",
"0x    c #B0B0B0",
"0y    c #3E3E3E",
"0z    c #A8A8A8",
"0A    c #FDFDFD",
"0B    c #CCCCCC",
"0C    c #C3C3C3",
"0D    c #969696",
"0E    c #AEAEAE",
"0F    c #D6D6D6",
"0G    c #ACACAC",
"0H    c #070707",
"0I    c #282828",
"0J    c #DADADA",
"0K    c #989898",
"0L    c #3C3C3C",
"0M    c #E6E6E6",
"0N    c #BDBDBD",
"0O    c #C2C2C2",
"0P    c #4F4F4F",
"0Q    c #EEEEEE",
"0R    c #A4A4A4",
"0S    c #545454",
"0T    c #353535",
"0U    c #D8D8D8",
"                       0 1 2 3 4                    ",
"                       5 6 7 8 9                    ",
"                       a b c d e                    ",
"                       a b c d e                    ",
"         f g h         a b c d e         i j k      ",
"       k l m 9         a b c d e       h n o p      ",
"       q r s t u       a b c d e     k v w x y      ",
"           z A B C     a b c d e   D E w F G        ",
"             H I J K   K b L I M N O w P Q          ",
"               R S w r T I U V W S w r X            ",
" Y Z & & & & 40 00 m s0102 20304 w050607 & & & & Z Y",
"08090a0a0a0a0a 80b0c w w080d w w s0e0f0a0a0a0a0a0908",
"0g0h0i0i0i0i0i0i0j0k s w0l0d w w0m0i0n0i0i0i0i0i0h0g",
"                0o0p w V080q B V0r0s                ",
"              0t0u w0v 2 I L0w0x0y w0z              ",
"            0A 5 w0u0A0d b c x M0B 80m0C            ",
"            0D s O g   a b c d e  0E A m0F          ",
"          0G0H0I0J     a b c d e    0K w0L0M        ",
"        0N o010O       a b c d e       v w0P0Q      ",
"        0D b0R         a b c d e       k0S0T j      ",
"         h0U X         a b c d e        0Q0         ",
"                       a b c d e                    ",
"                       a b c d e                    ",
"                       5 6 7 8 9                    ",
"                       0 1 2 3 4                    ",
"                                                    "};
