/* XPM */
static char *MOVE_xpm[]={
"26 26 130 2",
"      c #FFFFFF",
" 0    c #FFFEFE",
" 1    c #FFFDFD",
" 2    c #FFEEEE",
" 3    c #FFDBDB",
" 4    c #FFE5E5",
" 5    c #FFF8F8",
" 6    c #FFF3F3",
" 7    c #FFE0E0",
" 8    c #FF9898",
" 9    c #FF0E0E",
" a    c #FF3A3A",
" b    c #FFCECE",
" c    c #FFF9F9",
" d    c #FFA8A8",
" e    c #FF1313",
" f    c #FF1616",
" g    c #FF8686",
" h    c #FFF4F4",
" i    c #FFDCDC",
" j    c #FF0303",
" k    c #FF0000",
" l    c #FF1919",
" m    c #FF2E2E",
" n    c #FF3030",
" o    c #FF2F2F",
" p    c #FF2B2B",
" q    c #FF1111",
" r    c #FF0101",
" s    c #FF4444",
" t    c #FFE7E7",
" u    c #FFABAB",
" v    c #FFF6F6",
" w    c #FFEDED",
" x    c #FF5555",
" y    c #FF6060",
" z    c #FFF7F7",
" A    c #FFCFCF",
" B    c #FF8C8C",
" C    c #FFE8E8",
" D    c #FF8E8E",
" E    c #FFFAFA",
" F    c #FF4F4F",
" G    c #FFC8C8",
" H    c #FFFCFC",
" I    c #FFFBFB",
" J    c #FF1212",
" K    c #FF8F8F",
" L    c #FFEFEF",
" M    c #FF3434",
" N    c #FF1414",
" O    c #FF6565",
" P    c #FFB5B5",
" Q    c #FF6262",
" R    c #FF3838",
" S    c #FF7171",
" T    c #FF3D3D",
" U    c #FFC4C4",
" V    c #FF3232",
" W    c #FF1E1E",
" X    c #FF5B5B",
" Y    c #FF5050",
" Z    c #FF5353",
" &    c #FF4040",
"0     c #FF2828",
"00    c #FFDFDF",
"01    c #FFC2C2",
"02    c #FF1F1F",
"03    c #FD6060",
"04    c #F7F7F7",
"05    c #F5F5F5",
"06    c #FAFAFA",
"07    c #F9F9F9",
"08    c #EFEFEF",
"09    c #F4F4F4",
"0a    c #FE4A4A",
"0b    c #FF9292",
"0c    c #FC7E7E",
"0d    c #D16767",
"0e    c #030303",
"0f    c #0B0B0B",
"0g    c #CACACA",
"0h    c #FCFCFC",
"0i    c #868686",
"0j    c #010101",
"0k    c #CF6060",
"0l    c #FE8E8E",
"0m    c #F84C4C",
"0n    c #390909",
"0o    c #000000",
"0p    c #681010",
"0q    c #EC6464",
"0r    c #C20303",
"0s    c #040404",
"0t    c #5D5D5D",
"0u    c #F3F3F3",
"0v    c #282828",
"0w    c #4A0E0E",
"0x    c #A70C0C",
"0y    c #C3C3C3",
"0z    c #D1D1D1",
"0A    c #070707",
"0B    c #171717",
"0C    c #BDBDBD",
"0D    c #494949",
"0E    c #3A3A3A",
"0F    c #FDFDFD",
"0G    c #FEFEFE",
"0H    c #DBDBDB",
"0I    c #5C5C5C",
"0J    c #909090",
"0K    c #EFD0D0",
"0L    c #923333",
"0M    c #151515",
"0N    c #0C0C0C",
"0O    c #131313",
"0P    c #080808",
"0Q    c #666666",
"0R    c #888888",
"0S    c #DFDFDF",
"0T    c #7B7B7B",
"0U    c #232323",
"0V    c #1F1F1F",
"0W    c #242424",
"0X    c #DDDDDD",
"0Y    c #353535",
"0Z    c #454545",
"0&    c #B5B5B5",
"1     c #929292",
"10    c #F1F1F1",
"                                                    ",
"           0                             0          ",
"       1 2 3 4 5 0                   0 6 7 7 6 1    ",
"       2 8 9 a b c                   6 d e f g h    ",
"       i j k k l m n o n n n o n o n p q k r s t 0  ",
"     0 4 9 k k u v                   w x k k y w 0  ",
"       z A p B C 1                   c 3 D n d c    ",
"         E F G H 0                     I h J K      ",
"         L M                               N O      ",
"         P Q                               s R      ",
"         S T                               U V      ",
"         W X                               7 Y      ",
"         Z A                                 &      ",
"       L M                                  0 00    ",
"      01 X                                  02 u    ",
"       P03040506                      0708090a0b    ",
"      0c0d0e0f0g0h                  060i0j0e0k0l    ",
"      0m0n0o0o0o0o0o0o0o0o0o0o0o0o0o0o0o0o0o0p0q    ",
"      0r0s0o0o0t0u                  0u0v0o0o0w0x0y  ",
"  0z0A0B0C0D0E0g0F                  0G0H0I0J0K0L0M  ",
"080N0O080h0405                        0h060h  080P0Q",
"0R0o0S                                          0T0U",
"0V0W                                            0X0Y",
"0Z0&                                              1 ",
"                                                  10",
"                                                    "};
