/* XPM */
static char *SETMINTI_xpm[]={
"26 26 76 2",
"      c #FFFFFF",
" 0    c #202020",
" 1    c #707070",
" 2    c #0B0B0B",
" 3    c #626262",
" 4    c #0D0D0D",
" 5    c #646464",
" 6    c #F6F6F6",
" 7    c #D7D7D7",
" 8    c #FEFEFE",
" 9    c #F4F4F4",
" a    c #6C6C6C",
" b    c #242424",
" c    c #B6B6B6",
" d    c #E0E0E0",
" e    c #4F4F4F",
" f    c #000000",
" g    c #323232",
" h    c #CBCBCB",
" i    c #C6C6C6",
" j    c #2D2D2D",
" k    c #535353",
" l    c #E3E3E3",
" m    c #686868",
" n    c #A6A6A6",
" o    c #151515",
" p    c #7E7E7E",
" q    c #F8F8F8",
" r    c #121212",
" s    c #5C5C5C",
" t    c #919191",
" u    c #090909",
" v    c #232323",
" w    c #A7A7A7",
" x    c #181818",
" y    c #050505",
" z    c #101010",
" A    c #949494",
" B    c #D3D3D3",
" C    c #CDCDCD",
" D    c #CECECE",
" E    c #CCCCCC",
" F    c #D2D2D2",
" G    c #080808",
" H    c #1F1F1F",
" I    c #1C1C1C",
" J    c #171717",
" K    c #2E2E2E",
" L    c #252525",
" M    c #525252",
" N    c #4A4A4A",
" O    c #484848",
" P    c #444444",
" Q    c #595959",
" R    c #0F0F0F",
" S    c #111111",
" T    c #6B6B6B",
" U    c #9D9D9D",
" V    c #828282",
" W    c #414141",
" X    c #E6E6E6",
" Y    c #FAFAFA",
" Z    c #565656",
" &    c #EEEEEE",
"0     c #5F5F5F",
"00    c #5B5B5B",
"01    c #F5F5F5",
"02    c #EBEBEB",
"03    c #464646",
"04    c #FBFBFB",
"05    c #DEDEDE",
"06    c #343434",
"07    c #434343",
"08    c #EAEAEA",
"09    c #E1E1E1",
"0a    c #E4E4E4",
"                                                    ",
"   0 1                                              ",
"   2 3                                              ",
"   4 5                                              ",
"   4 5                                              ",
"   4 5           6 7 8                              ",
"   4 5         9 a b c                              ",
"   4 5       d e f g h                              ",
"   4 5     i j f k l                                ",
"   4 m   n o f p q                                  ",
"   r s t u v w 8                                    ",
"   x 4 y z A l B C D D D D D D D D D D D E F        ",
"   x f f G H I J J J J J J J J J J J J J o K        ",
"   x f f L M N O O O O O O O O O O O O O P Q        ",
"   x I R b D                                        ",
"   S T U f g 7                                      ",
"   4 m   V f W X                                    ",
"   4 5   Y a f Z &                                  ",
"   4 5     90  f0001                                ",
"   4 5      0203 f a04                              ",
"   4 5        05060708                              ",
"   4 5         8090a                                ",
"   4 5                                              ",
"   4 5                                              ",
"   2 3                                              ",
"                                                    "};
