/* XPM */
static char *SETMAXTI_xpm[]={
"26 26 81 2",
"      c #FFFFFF",
" 0    c #7B7B7B",
" 1    c #212121",
" 2    c #6E6E6E",
" 3    c #0B0B0B",
" 4    c #707070",
" 5    c #0D0D0D",
" 6    c #D7D7D7",
" 7    c #F6F6F6",
" 8    c #C1C1C1",
" 9    c #292929",
" a    c #616161",
" b    c #EEEEEE",
" c    c #D2D2D2",
" d    c #3A3A3A",
" e    c #000000",
" f    c #454545",
" g    c #DADADA",
" h    c #E9E9E9",
" i    c #5C5C5C",
" j    c #252525",
" k    c #C0C0C0",
" l    c #FCFCFC",
" m    c #878787",
" n    c #060606",
" o    c #121212",
" p    c #9E9E9E",
" q    c #747474",
" r    c #0E0E0E",
" s    c #AFAFAF",
" t    c #282828",
" u    c #040404",
" v    c #8B8B8B",
" w    c #656565",
" x    c #131313",
" y    c #CCCCCC",
" z    c #CECECE",
" A    c #E3E3E3",
" B    c #9C9C9C",
" C    c #161616",
" D    c #010101",
" E    c #191919",
" F    c #2E2E2E",
" G    c #151515",
" H    c #171717",
" I    c #1B1B1B",
" J    c #202020",
" K    c #090909",
" L    c #595959",
" M    c #444444",
" N    c #484848",
" O    c #494949",
" P    c #525252",
" Q    c #181818",
" R    c #D5D5D5",
" S    c #2B2B2B",
" T    c #0A0A0A",
" U    c #1F1F1F",
" V    c #1A1A1A",
" W    c #DEDEDE",
" X    c #3C3C3C",
" Y    c #939393",
" Z    c #ECECEC",
" &    c #4A4A4A",
"0     c #787878",
"00    c #F4F4F4",
"01    c #606060",
"02    c #626262",
"03    c #F5F5F5",
"04    c #F9F9F9",
"05    c #676767",
"06    c #545454",
"07    c #767676",
"08    c #3E3E3E",
"09    c #E6E6E6",
"0a    c #F1F1F1",
"0b    c #4C4C4C",
"0c    c #2C2C2C",
"0d    c #E8E8E8",
"0e    c #DDDDDD",
"0f    c #FDFDFD",
"                                                    ",
"                                               0 1  ",
"                                               2 3  ",
"                                               4 5  ",
"                                               4 5  ",
"                                 6 7           4 5  ",
"                               8 9 a b         4 5  ",
"                               c d e f g       4 5  ",
"                                 h i e j k     4 5  ",
"                                   l m n o p   q r  ",
"                                       s t u v w x  ",
"         c y z z z z z z z z z z z z c A B C D r E  ",
"         F G H H H H H H H H H H H H H I J K e e E  ",
"         L M N N N N N N N N N N N N N O P 9 e e Q  ",
"                                         R S T U V  ",
"                                       W X e Y q o  ",
"                                     Z & e0    q 5  ",
"                                  0001 e0203   4 5  ",
"                                0405 e06 b     4 5  ",
"                                07 e0809       4 5  ",
"                              0a0b0c R         4 5  ",
"                                0d0e0f         4 5  ",
"                                               4 5  ",
"                                               4 5  ",
"                                               2 3  ",
"                                                    "};
