/* XPM */
static char *TRUNANIM_xpm[]={
"26 26 126 2",
"      c #FFFFFF",
" 0    c #202020",
" 1    c #DEDEDE",
" 2    c #E2E2E2",
" 3    c #2A2A2A",
" 4    c #7A7A7A",
" 5    c #212121",
" 6    c #E3E3E3",
" 7    c #2B2B2B",
" 8    c #7B7B7B",
" 9    c #252525",
" a    c #2E2E2E",
" b    c #7D7D7D",
" c    c #FEFEFE",
" d    c #F1F1F1",
" e    c #AAAAAA",
" f    c #CBCBCB",
" g    c #CDCDCD",
" h    c #A7A7A7",
" i    c #EDEDED",
" j    c #F2F2F2",
" k    c #808080",
" l    c #000000",
" m    c #7F7F7F",
" n    c #888888",
" o    c #777777",
" p    c #F0F0F0",
" q    c #737373",
" r    c #010101",
" s    c #3F3F3F",
" t    c #C8C8C8",
" u    c #CCCCCC",
" v    c #454545",
" w    c #6A6A6A",
" x    c #EAEAEA",
" y    c #262626",
" z    c #E9E9E9",
" A    c #E8E8E8",
" B    c #5F5F5F",
" C    c #545454",
" D    c #E0E0E0",
" E    c #E5E5E5",
" F    c #5B5B5B",
" G    c #303030",
" H    c #626262",
" I    c #020202",
" J    c #6B6B6B",
" K    c #EEEEEE",
" L    c #747474",
" M    c #040404",
" N    c #595959",
" O    c #C9C9C9",
" P    c #373737",
" Q    c #7E7E7E",
" R    c #161616",
" S    c #404040",
" T    c #0B0B0B",
" U    c #F6F6F6",
" V    c #F8F8F8",
" W    c #F9F9F9",
" X    c #7C7C7C",
" Y    c #090909",
" Z    c #3E3E3E",
" &    c #191919",
"0     c #878787",
"00    c #0C0C0C",
"01    c #606060",
"02    c #636363",
"03    c #0F0F0F",
"04    c #8F8F8F",
"05    c #181818",
"06    c #232323",
"07    c #131313",
"08    c #111111",
"09    c #121212",
"0a    c #1A1A1A",
"0b    c #8E8E8E",
"0c    c #B2B2B2",
"0d    c #BDBDBD",
"0e    c #BABABA",
"0f    c #BCBCBC",
"0g    c #B5B5B5",
"0h    c #333333",
"0i    c #898989",
"0j    c #2C2C2C",
"0k    c #858585",
"0l    c #D4D4D4",
"0m    c #585858",
"0n    c #080808",
"0o    c #A5A5A5",
"0p    c #AEAEAE",
"0q    c #515151",
"0r    c #D7D7D7",
"0s    c #383838",
"0t    c #E6E6E6",
"0u    c #1D1D1D",
"0v    c #C7C7C7",
"0w    c #CECECE",
"0x    c #242424",
"0y    c #282828",
"0z    c #DCDCDC",
"0A    c #EBEBEB",
"0B    c #2F2F2F",
"0C    c #C0C0C0",
"0D    c #323232",
"0E    c #DADADA",
"0F    c #393939",
"0G    c #0D0D0D",
"0H    c #FCFCFC",
"0I    c #9E9E9E",
"0J    c #4A4A4A",
"0K    c #E1E1E1",
"0L    c #505050",
"0M    c #949494",
"0N    c #FBFBFB",
"0O    c #F7F7F7",
"0P    c #707070",
"0Q    c #0E0E0E",
"0R    c #676767",
"0S    c #C5C5C5",
"0T    c #C4C4C4",
"0U    c #222222",
"0V    c #313131",
"0W    c #E4E4E4",
"0X    c #3A3A3A",
"0Y    c #848484",
"                                                    ",
"     0 1                                     2 3 4  ",
"     5 1                                     6 7 8  ",
"     9 1                                     6 a b  ",
"     9 1           c             c           6 a b  ",
"     9 1       d e f             g h i       6 a b  ",
"     9 1     j k l m             n l o p     6 a b  ",
"     9 1   i q r s t             u v l w x   6 a b  ",
"     y z A B l C D                 E F l F E i G b  ",
"     a t H I J K                     d L M N O P Q  ",
"     R S T o U   V V V V V V V V V V c W X Y Z &0   ",
"     l l0001 L020202020202020202020202 L H03 l l04  ",
"     l l05060708080808080808080808080809060a l l0b  ",
"     r l a0c0d0e0e0e0e0e0e0e0e0e0e0e0e0f0g0h l r0b  ",
"     y B080i                            0409 F0j0k  ",
"     a0l0m0n0o                        0p T0q0r0s b  ",
"     90t 2 a0u0v                    0w0x0y0z0A0B b  ",
"     9 1  0C070D0E                 D0F0G0e   6 a b  ",
"     9 1  0H0I r0J0K             E0L r0M0N   6 a b  ",
"     9 1    0O0P0G0f            0C0Q0R U     6 a b  ",
"     9 1       E0S p             j0T 2       6 a b  ",
"     9 1         c                 c c       6 a b  ",
"     9 1                                     6 a b  ",
"    0U 1                                     60j X  ",
"    0V D                                    0W0X0Y  ",
"                                                    "};
